fs/document_text_toolbox_20_regular.svg

<svg viewBox="0 0 20 20" fill="none" xmlns="http://www.w3.org/2000/svg" height="1em" width="1em">
  <path d="M8.94999 11C8.875 10.6306 8.71854 10.2907 8.50018 10H13.5C13.7761 10 14 10.2239 14 10.5C14 10.7761 13.7761 11 13.5 11H8.94999ZM10.5002 12C10.7185 12.2907 10.875 12.6306 10.95 13H13.5C13.7761 13 14 12.7761 14 12.5C14 12.2239 13.7761 12 13.5 12H10.5002ZM13.5 14H11V15H13.5C13.7761 15 14 14.7761 14 14.5C14 14.2239 13.7761 14 13.5 14ZM5 4V9H4.5C4.32877 9 4.16156 9.01722 4 9.05001V4C4 2.89543 4.89543 2 6 2H10.5858C10.9836 2 11.3651 2.15804 11.6464 2.43934L15.5607 6.35355C15.842 6.63486 16 7.01639 16 7.41421V16C16 17.1046 15.1046 18 14 18H10.95C10.9828 17.8384 11 17.6712 11 17.5V17H14C14.5523 17 15 16.5523 15 16V8H11.5C10.6716 8 10 7.32843 10 6.5V3H6C5.44772 3 5 3.44772 5 4ZM11.5 7H14.7929L11 3.20711V6.5C11 6.77614 11.2239 7 11.5 7ZM3 12V11.5C3 10.6716 3.67157 10 4.5 10H6.5C7.32843 10 8 10.6716 8 11.5V12H8.5C9.32843 12 10 12.6716 10 13.5V15H8V14.5C8 14.2239 7.77614 14 7.5 14C7.22386 14 7 14.2239 7 14.5V15H4V14.5C4 14.2239 3.77614 14 3.5 14C3.22386 14 3 14.2239 3 14.5V15H1V13.5C1 12.6716 1.67157 12 2.5 12H3ZM4 11.5V12H7V11.5C7 11.2239 6.77614 11 6.5 11H4.5C4.22386 11 4 11.2239 4 11.5ZM8 16H10V17.5C10 18.3284 9.32843 19 8.5 19H2.5C1.67157 19 1 18.3284 1 17.5V16H3V16.5C3 16.7761 3.22386 17 3.5 17C3.77614 17 4 16.7761 4 16.5V16H7V16.5C7 16.7761 7.22386 17 7.5 17C7.77614 17 8 16.7761 8 16.5V16Z" fill="#212121"/>
</svg>

<svg viewBox="0 0 20 20" fill="none" xmlns="http://www.w3.org/2000/svg" height="1em" width="1em">
  <path d="M8.95 11a2.489 2.489 0 0 0-.45-1h5a.5.5 0 0 1 0 1H8.95Zm1.55 1c.219.29.375.63.45 1h2.55a.5.5 0 0 0 0-1h-3Zm3 2H11v1h2.5a.5.5 0 0 0 0-1ZM5 4v5h-.5c-.171 0-.338.017-.5.05V4a2 2 0 0 1 2-2h4.586a1.5 1.5 0 0 1 1.06.44l3.915 3.914A1.5 1.5 0 0 1 16 7.414V16a2 2 0 0 1-2 2h-3.05c.033-.162.05-.329.05-.5V17h3a1 1 0 0 0 1-1V8h-3.5A1.5 1.5 0 0 1 10 6.5V3H6a1 1 0 0 0-1 1Zm6.5 3h3.293L11 3.207V6.5a.5.5 0 0 0 .5.5ZM3 12v-.5A1.5 1.5 0 0 1 4.5 10h2A1.5 1.5 0 0 1 8 11.5v.5h.5a1.5 1.5 0 0 1 1.5 1.5V15H8v-.5a.5.5 0 0 0-1 0v.5H4v-.5a.5.5 0 0 0-1 0v.5H1v-1.5A1.5 1.5 0 0 1 2.5 12H3Zm1-.5v.5h3v-.5a.5.5 0 0 0-.5-.5h-2a.5.5 0 0 0-.5.5ZM8 16h2v1.5A1.5 1.5 0 0 1 8.5 19h-6A1.5 1.5 0 0 1 1 17.5V16h2v.5a.5.5 0 0 0 1 0V16h3v.5a.5.5 0 0 0 1 0V16Z" fill="#212121"/>
</svg>
